src/rounded/icons/fi-rr-globe-alt.svg

<svg id="Layer_1" height="512" viewBox="0 0 24 24" width="512" xmlns="http://www.w3.org/2000/svg" data-name="Layer 1"><path d="m13 16a8 8 0 1 0 -8-8 8.009 8.009 0 0 0 8 8zm0-14a6 6 0 1 1 -6 6 6.006 6.006 0 0 1 6-6zm9.907 12.773a11.992 11.992 0 0 1 -8.907 5.166v2.061h4a1 1 0 0 1 0 2h-10a1 1 0 0 1 0-2h4v-2.051a11.994 11.994 0 0 1 -8.257-19.586 1 1 0 0 1 1.542 1.274 10 10 0 1 0 15.971 12.006 1 1 0 0 1 1.651 1.13z"/></svg>

<svg id="Layer_1" data-name="Layer 1" xmlns="http://www.w3.org/2000/svg" viewBox="0 0 24 24"><path d="M13,16A8,8,0,1,0,5,8,8.009,8.009,0,0,0,13,16ZM13,2A6,6,0,1,1,7,8,6.006,6.006,0,0,1,13,2Zm9.907,12.773A11.992,11.992,0,0,1,14,19.939V22h4a1,1,0,0,1,0,2H8a1,1,0,0,1,0-2h4V19.949A11.994,11.994,0,0,1,3.743.363,1,1,0,0,1,5.285,1.637,10,10,0,1,0,21.256,13.643a1,1,0,0,1,1.651,1.13Z"/></svg>
